X:1
T:canon
T:Variation of Canon in C
T:J. Pachelbel
%%score { 1 | 2 }
L:1/8
Q:1/4=105
M:4/4
K:C
V:1 treble nm="Piano" snm="Pno."
V:2 bass 
V:1
 z8 | z8 | z8 | z8 | z8 | z8 | z8 | z8 | [ce]8 | [Bd]8 | [Ac]8 | [GB]8 | [FA]8 | [EG]8 | [FA]8 | %15
 [GB]8 | [ce]2 B2 c2 E2 | [B,D]2 G2 F2 G2 | [EA]2 c2 B2 A2 | [GB]2 e2 g2 a2 | (f2 e2 d2 f2 | %21
 e2 d2 c2 B2 | A2 G2 F2 E2) | (D2 F2 E2 D2 | C2 D2 E2 F2 | G2 D2 G2 F2 | E2 A2 G2 F2) | %27
 (G2 F2 E2 D2 | C2 G,2 A2 B2 | c2 B2 A2 G2 | F2 E2 D2 A2 | G2 A2 G2 F2 | E4) e4 | d8 | z4 c4 | %35
 e4 z2 z2 | A2 F2 A2 B2 | G4 z4 | A4 c4 | B4 d4 | e2 e>f g>f e>d- | d>G A>B c>d e>f | %42
 e2 c>d e>d c>B- | B>E F>G A>B c>B | A2 e g2 a3 | e2 e d2 c3 | A>E F3/2c7/4A7/4c | %47
 d>B c>c d>B c>d | [eg]2 e>f [eg]2 e>f | [eg]>G A>B c>d e>f | [ce]2 c>d [ce]2 c>d | %51
 [ce]>E F>G A>B c>B | [FA]2 c>B A2 G>F | G>A G>F [EG]>c B>c | A2 c>B c2 B>A | B>c d>c B>c A>B | %56
 [ce]2 c>d [ce]2 d>c | d>B c>d [ce]>d c>B | [Ac]2 A>B c2 C>D | E>F E>D E>c B>c | [FA]2 c>B A2 G>F | %61
 G>A G>F G>c B>c | A2 c>B c2 B>A | B>c d>c B>c A>B | c2 e>f g2 e2- | e2 B>c d2 B2 | %66
 z3/2 A/ c>d e2 c2 | e2 e>d c2 B2 | z3/2 F/ A>B c2 A2 | z2 G>B c2 G2 | z2 A>B c2 A2 | %71
 G>G B>c d2 B2 | z2 e>f g2 e2 | z2 B>c d>A B2 | A>A c>d e2 c2 | B>B g>f e2 g2 | a2 a>g f2 a2 | %77
 g2 g>f e2 g2 | a>g fa>gf b>a | gb>ag cdef | e4 e>d cd- | d2 z3/2 e/ f>e d2 | d3 c3 B>c | %83
 B>d e>f g>a b>c' | b>a g>f g>f e>d | e>d c>B c>B A>G | A>G F>G A2 c2 | B3 c3 d2 |: %88
 e>c G>G e>c f>d | g>d a>d g>c f>c | e4 c>A d>B | e>c f>B e>A d>A | c4 A>A B>c- | %93
 c>c B3/2c->cc/ B>c | c>c B3/2c->cc/ B>c | G>G G3/2 c2 B/ d2 :: %96
 e/4e/4e/4e/4e/4e/4e/4e/4 e/4e/4e/4e/4e/4e/4e/4e/4 e/4e/4e/4e/4e/4e/4e/4e/4 e/4e/4e/4e/4e/4e/4e/4e/4 | %97
 d/4d/4d/4d/4d/4d/4d/4d/4 d/4d/4d/4d/4d/4d/4d/4d/4 d/4d/4d/4d/4d/4d/4d/4d/4 d/4d/4d/4d/4d/4d/4d/4d/4 | %98
 c/4c/4c/4c/4c/4c/4c/4c/4 c/4c/4c/4c/4c/4c/4c/4c/4 c/4c/4c/4c/4c/4c/4c/4c/4 c/4c/4c/4c/4c/4c/4c/4c/4 | %99
 B/4B/4B/4B/4B/4B/4B/4B/4 B/4B/4B/4B/4B/4B/4B/4B/4 B/4B/4B/4B/4B/4B/4B/4B/4 B/4B/4B/4B/4B/4B/4B/4B/4 | %100
 A/4A/4A/4A/4A/4A/4A/4A/4 A/4A/4A/4A/4A/4A/4A/4A/4 A/4A/4A/4A/4A/4A/4A/4A/4 A/4A/4A/4A/4A/4A/4A/4A/4 | %101
 G/4G/4G/4G/4G/4G/4G/4G/4 G/4G/4G/4G/4G/4G/4G/4G/4 G/4G/4G/4G/4G/4G/4G/4G/4 G/4G/4G/4G/4G/4G/4G/4G/4 | %102
 A/4A/4A/4A/4A/4A/4A/4A/4 A/4A/4A/4A/4A/4A/4A/4A/4 A/4A/4A/4A/4A/4A/4A/4A/4 A/4A/4A/4A/4A/4A/4A/4A/4 | %103
 B/4B/4B/4B/4B/4B/4B/4B/4 B/4B/4B/4B/4B/4B/4B/4B/4 B/4B/4B/4B/4B/4B/4B/4B/4 B/4B/4B/4B/4B/4B/4B/4B/4 :| %104
 c8 |] %105
V:2
 C,2 G,,2 C,2 E,2 | G,,2 D,,2 G,,2 B,,2 | A,,2 E,,2 A,,2 C,2 | E,,2 B,,,2 E,,2 G,,2 | %4
 F,,2 C,,2 F,,2 A,,2 | C,,2 G,,,2 C,,2 E,,2 | F,,2 C,,2 F,,2 A,,2 | G,,2 D,,2 G,,2 B,,2 | %8
 C,2 G,,2 C,2 E,2 | G,,2 D,,2 G,,2 B,,2 | A,,2 E,,2 A,,2 C,2 | E,,2 B,,,2 E,,2 G,,2 | %12
 F,,2 C,,2 F,,2 A,,2 | C,,2 G,,,2 C,,2 E,,2 | F,,2 C,,2 F,,2 A,,2 | G,,2 D,,2 G,,2 B,,2 | %16
 C,2 G,,2 C,2 E,2 | G,,2 D,,2 G,,2 B,,2 | A,,2 E,,2 A,,2 C,2 | E,,2 B,,,2 E,,2 G,,2 | %20
 F,,2 C,,2 F,,2 A,,2 | C,,2 G,,,2 C,,2 E,,2 | F,,2 C,,2 F,,2 A,,2 | G,,2 D,,2 G,,2 B,,2 | %24
 C,2 G,,2 C,2 E,2 | G,,2 D,,2 G,,2 B,,2 | A,,2 E,,2 A,,2 C,2 | E,,2 B,,,2 E,,2 G,,2 | %28
 F,,2 C,,2 F,,2 A,,2 | C,,2 G,,,2 C,,2 E,,2 | F,,2 C,,2 F,,2 A,,2 | G,,2 D,,2 G,,2 B,,2 | %32
 C,2 G,,2 C,2 E,2 | G,,2 D,,2 G,,2 B,,2 | A,,2 E,,2 A,,2 C,2 | E,,2 B,,,2 E,,2 G,,2 | %36
 F,,2 C,,2 F,,2 A,,2 | C,,2 G,,,2 C,,2 E,,2 | F,,2 C,,2 F,,2 A,,2 | G,,2 D,,2 G,,2 B,,2 | %40
 C,2 G,,2 C,2 E,2 | G,,2 D,,2 G,,2 B,,2 | A,,2 E,,2 A,,2 C,2 | E,,2 B,,,2 E,,2 G,,2 | %44
 F,,2 C,,2 F,,2 A,,2 | C,,2 G,,,2 C,,2 E,,2 | F,,2 C,,2 F,,2 A,,2 | G,,2 D,,2 G,,2 B,,2 | %48
 C,2 G,,2 C,2 E,2 | G,,2 D,,2 G,,2 B,,2 | A,,2 E,,2 A,,2 C,2 | E,,2 B,,,2 E,,2 G,,2 | %52
 F,,2 C,,2 F,,2 A,,2 | C,,2 G,,,2 C,,2 E,,2 | F,,2 C,,2 F,,2 A,,2 | G,,2 D,,2 G,,2 B,,2 | %56
 C,2 G,,2 C,2 E,2 | G,,2 D,,2 G,,2 B,,2 | A,,2 E,,2 A,,2 C,2 | E,,2 B,,,2 E,,2 G,,2 | %60
 F,,2 C,,2 F,,2 A,,2 | C,,2 G,,,2 C,,2 E,,2 | F,,2 C,,2 F,,2 A,,2 | G,,2 D,,2 G,,2 B,,2 | %64
 C,2 G,,2 C,2 E,2 | G,,2 D,,2 G,,2 B,,2 | A,,2 E,,2 A,,2 C,2 | E,,2 B,,,2 E,,2 G,,2 | %68
 F,,2 C,,2 F,,2 A,,2 | C,,2 G,,,2 C,,2 E,,2 | F,,2 C,,2 F,,2 A,,2 | G,,2 D,,2 G,,2 B,,2 | %72
 C,2 G,,2 C,2 E,2 | G,,2 D,,2 G,,2 B,,2 | A,,2 E,,2 A,,2 C,2 | E,,2 B,,,2 E,,2 G,,2 | %76
 F,,2 C,,2 F,,2 A,,2 | C,,2 G,,,2 C,,2 E,,2 | F,,2 C,,2 F,,2 A,,2 | G,,2 D,,2 G,,2 B,,2 | %80
 C,2 G,,2 C,2 E,2 | G,,2 D,,2 G,,2 B,,2 | A,,2 E,,2 A,,2 C,2 | E,,2 B,,,2 E,,2 G,,2 | %84
 F,,2 C,,2 F,,2 A,,2 | C,,2 G,,,2 C,,2 E,,2 | F,,2 C,,2 F,,2 A,,2 | G,,2 D,,2 G,,2 B,,2 |: %88
 C,2 G,,2 C,2 E,2 | G,,2 D,,2 G,,2 B,,2 | A,,2 E,,2 A,,2 C,2 | E,,2 B,,,2 E,,2 G,,2 | %92
 F,,2 C,,2 F,,2 A,,2 | C,,2 G,,,2 C,,2 E,,2 | F,,2 C,,2 F,,2 A,,2 | G,,2 D,,2 G,,2 B,,2 :: %96
 C,2 G,,2 C,2 E,2 | G,,2 D,,2 G,,2 B,,2 | A,,2 E,,2 A,,2 C,2 | E,,2 B,,,2 E,,2 G,,2 | %100
 F,,2 C,,2 F,,2 A,,2 | C,,2 G,,,2 C,,2 E,,2 | F,,2 C,,2 F,,2 A,,2 | G,,2 D,,2 G,,2 B,,2 :| C,8 |] %105

